images/icons/phone-icon.svg

<svg xmlns="http://www.w3.org/2000/svg" width="18" height="18" fill="none"><path fill="#161219" d="M3.62 7.79c1.44 2.83 3.76 5.14 6.59 6.59l2.2-2.2c.27-.27.67-.36 1.02-.24 1.12.37 2.33.57 3.57.57.55 0 1 .45 1 1V17c0 .55-.45 1-1 1C7.61 18 0 10.39 0 1c0-.55.45-1 1-1h3.5c.55 0 1 .45 1 1 0 1.25.2 2.45.57 3.57.11.35.03.74-.25 1.02l-2.2 2.2Z"/></svg>

<svg width="18" height="18" viewBox="0 0 18 18" fill="none" xmlns="http://www.w3.org/2000/svg">
<path d="M3.62 7.79C5.06 10.62 7.38 12.93 10.21 14.38L12.41 12.18C12.68 11.91 13.08 11.82 13.43 11.94C14.55 12.31 15.76 12.51 17 12.51C17.55 12.51 18 12.96 18 13.51V17C18 17.55 17.55 18 17 18C7.61 18 0 10.39 0 1C0 0.45 0.45 0 1 0H4.5C5.05 0 5.5 0.45 5.5 1C5.5 2.25 5.7 3.45 6.07 4.57C6.18 4.92 6.1 5.31 5.82 5.59L3.62 7.79Z" fill="#161219"/>
</svg>
